picto/arrow-pointing-left-and-down-green.svg

<svg class="color-immutable" width="24" height="24" viewBox="0 0 24 24" fill="none" xmlns="http://www.w3.org/2000/svg"><g clip-path="url(#a)"><path d="M0 22.5v-21C0 .675.675 0 1.5 0h21c.825 0 1.5.675 1.5 1.5v21c0 .825-.675 1.5-1.5 1.5h-21C.675 24 0 23.325 0 22.5Z" fill="#237F52"/><path d="m3 21 12.923-.195 4.405-4.405-9.004-.194 7.23-7.229-1.765-1.766-1.766-1.765-7.229 7.23L7.6 3.672 3.195 8.077 3 21Z" fill="#fff"/></g><defs><clipPath id="a"><path fill="#fff" d="M0 0h24v24H0z"/></clipPath></defs></svg>

<svg class="color-immutable" width="24" height="24" viewBox="0 0 24 24" fill="none" xmlns="http://www.w3.org/2000/svg"><path d="M0 22.5V1.5C0 0.675 0.675 0 1.5 0H22.5C23.325 0 24 0.675 24 1.5V22.5C24 23.325 23.325 24 22.5 24H1.5C0.675 24 0 23.325 0 22.5Z" fill="#237F52"/><path d="M3 21L15.923 20.805L20.328 16.4L11.324 16.206L18.554 8.977L16.789 7.211L15.023 5.446L7.794 12.676L7.6 3.672L3.195 8.077L3 21Z" fill="white"/></svg>
